X:230
T: John Walsh's #2
S: "Johnny O'Leary of Sliabh Luachra" (#261)
Z: B.Black
L: 1/8
M: 2/4
Q: 270
R: polka
K: G
G>A BA|GE ED|G>A BA|GB d^c/d/|
G>A BA|GE F/E/D|G>A BA|G2 G2 :|
dg gf/e/|dB BA/B/|AB c/^c/d|ed Bc/B/|
dg gf/e/|dB BA/B/|AB c/B/A|G2 G2 :|
dg gb|ag gd|e/f/g ed|dB B>c|
dg gb|ag gd|e/f/g ed|g2 g>e :|
dB B/c/B/A/|GB Bc/B/|AB B/c/d/f/|ed BB/A/|
GB B/c/B/A/|GB BA/B/|AB cA|G2 G2 :|
